build/TerriaJS/images/icons/bar-chart.svg

<?xml version="1.0" encoding="UTF-8" standalone="no"?>
<svg width="100px" height="100px" viewBox="20 20 60 60" version="1.1" xmlns="http://www.w3.org/2000/svg" xmlns:xlink="http://www.w3.org/1999/xlink">
    <!-- Generator: Sketch 3.8.3 (29802) - http://www.bohemiancoding.com/sketch -->
    <title>linechart</title>
    <desc>Created with Sketch.</desc>
    <defs></defs>
    <g id="Page-2" stroke="none" stroke-width="1" fill="none" fill-rule="evenodd">
        <g id="linechart">
            <rect id="bounds" x="0" y="0" width="100" height="100"></rect>
            <path d="M74.163652,72.327304 L27.672696,72.327304 L27.672696,25.836348 C27.672696,24.8062016 26.8664944,24 25.836348,24 C24.8062016,24 24,24.8062016 24,25.836348 L24,74.163652 C24,75.1937984 24.8062016,76 25.836348,76 L74.163652,76 C75.1937984,76 76,75.1937984 76,74.163652 C76,73.1335056 75.1937984,72.327304 74.163652,72.327304 Z M45.453919,65.250646 L45.453919,38.8251507 C45.453919,37.7950043 44.6477175,36.9888028 43.6175711,36.9888028 C42.5874246,36.9888028 41.7812231,37.7950043 41.7812231,38.8251507 L41.7812231,65.250646 C41.7812231,66.2807924 42.5874246,67.086994 43.6175711,67.086994 C44.6477175,67.086994 45.453919,66.2807924 45.453919,65.250646 Z M36.585702,65.250646 L36.585702,38.8251507 C36.585702,37.7950043 35.7795004,36.9888028 34.749354,36.9888028 C33.7192076,36.9888028 32.913006,37.7950043 32.913006,38.8251507 L32.913006,65.250646 C32.913006,66.2807924 33.7192076,67.086994 34.749354,67.086994 C35.7795004,67.086994 36.585702,66.2807924 36.585702,65.250646 Z M63.1903531,65.250646 L63.1903531,38.8251507 C63.1903531,37.7950043 62.3841516,36.9888028 61.3540052,36.9888028 C60.3238587,36.9888028 59.5176572,37.7950043 59.5176572,38.8251507 L59.5176572,65.250646 C59.5176572,66.2807924 60.3238587,67.086994 61.3540052,67.086994 C62.3841516,67.086994 63.1903531,66.2807924 63.1903531,65.250646 Z M72.0585702,65.250646 L72.0585702,52.0378984 C72.0585702,51.0077519 71.2523686,50.2015504 70.2222222,50.2015504 C69.1920758,50.2015504 68.3858742,51.0077519 68.3858742,52.0378984 L68.3858742,65.250646 C68.3858742,66.2807924 69.1920758,67.086994 70.2222222,67.086994 C71.2523686,67.086994 72.0585702,66.2807924 72.0585702,65.250646 Z M54.3221361,65.250646 L54.3221361,52.0378984 C54.3221361,51.0077519 53.5159345,50.2015504 52.4857881,50.2015504 C51.4556417,50.2015504 50.6494401,51.0077519 50.6494401,52.0378984 L50.6494401,65.250646 C50.6494401,66.2807924 51.4556417,67.086994 52.4857881,67.086994 C53.5159345,67.086994 54.3221361,66.2807924 54.3221361,65.250646 Z" id="bar-chart" fill="#000000"></path>
        </g>
    </g>
</svg>

<svg xmlns="http://www.w3.org/2000/svg" width="100" height="100" viewBox="20 20 60 60">
    <path fill="#000" fill-rule="evenodd" d="M74.164 72.327H27.673v-46.49c0-1.03-.807-1.837-1.837-1.837S24 24.806 24 25.836v48.328c0 1.03.806 1.836 1.836 1.836h48.328c1.03 0 1.836-.806 1.836-1.836s-.806-1.837-1.836-1.837m-28.71-7.076V38.825c0-1.03-.806-1.836-1.836-1.836s-1.837.806-1.837 1.836v26.426c0 1.03.806 1.836 1.837 1.836s1.836-.806 1.836-1.836m-8.868 0V38.825c0-1.03-.806-1.836-1.837-1.836s-1.836.806-1.836 1.836v26.426c0 1.03.806 1.836 1.836 1.836s1.837-.806 1.837-1.836m26.604 0V38.825c0-1.03-.806-1.836-1.836-1.836s-1.836.806-1.836 1.836v26.426c0 1.03.806 1.836 1.836 1.836s1.836-.806 1.836-1.836m8.869 0V52.038c0-1.03-.807-1.836-1.837-1.836s-1.836.806-1.836 1.836V65.25c0 1.03.806 1.836 1.836 1.836s1.837-.806 1.837-1.836m-17.737 0V52.038c0-1.03-.806-1.836-1.836-1.836s-1.837.806-1.837 1.836V65.25c0 1.03.807 1.836 1.837 1.836s1.836-.806 1.836-1.836"/>
</svg>
